vendor/shopware/storefront/Resources/app/storefront/dist/assets/icon/default/globe.svg

<svg xmlns="http://www.w3.org/2000/svg" width="24" height="24" viewBox="0 0 24 24">
  <path fill="#758CA3" fill-rule="evenodd" d="M12,16 C15.8659932,16 19,12.8659932 19,9 C19,5.13400675 15.8659932,2 12,2 C8.13400675,2 5,5.13400675 5,9 C5,12.8659932 8.13400675,16 12,16 Z M13,20.9589262 L13,22 L15,22 C15.5522847,22 16,22.4477153 16,23 C16,23.5522847 15.5522847,24 15,24 L9,24 C8.44771525,24 8,23.5522847 8,23 C8,22.4477153 8.44771525,22 9,22 L11,22 L11,20.9587715 C8.1631816,20.7240519 5.53467828,19.4960697 3.53425348,17.5047716 C3.14283731,17.1151412 3.14138963,16.4819779 3.53102001,16.0905617 C3.92065038,15.6991456 4.5538137,15.6976979 4.94522987,16.0873283 C6.80777215,17.9413729 9.31886859,19 12,19 C17.5228475,19 22,14.5228475 22,9 C22,6.33159756 20.9514707,3.83144866 19.1130314,1.97114455 C18.7248224,1.57831857 18.7285652,0.945164656 19.1213912,0.556955694 C19.5142172,0.168746732 20.1473711,0.17248956 20.5355801,0.565315536 C22.7403385,2.79629543 24,5.79987513 24,9 C24,15.2906638 19.1595305,20.4507753 13,20.9589262 Z M12,18 C7.02943725,18 3,13.9705627 3,9 C3,4.02943725 7.02943725,0 12,0 C16.9705627,0 21,4.02943725 21,9 C21,13.9705627 16.9705627,18 12,18 Z"/>
</svg>

<svg xmlns="http://www.w3.org/2000/svg" width="24" height="24" viewBox="0 0 24 24"><path fill="#758CA3" fill-rule="evenodd" d="M12 16c3.866 0 7-3.134 7-7s-3.134-7-7-7-7 3.134-7 7 3.134 7 7 7zm1 4.959V22h2c.5523 0 1 .4477 1 1s-.4477 1-1 1H9c-.5523 0-1-.4477-1-1s.4477-1 1-1h2v-1.0412c-2.8368-.2347-5.4653-1.4627-7.4657-3.454-.3915-.3897-.393-1.0228-.0033-1.4142.3897-.3915 1.0228-.3929 1.4142-.0033C6.8078 17.9413 9.319 19 12 19c5.5228 0 10-4.4772 10-10 0-2.6684-1.0485-5.1686-2.887-7.0289-.3882-.3928-.3844-1.026.0084-1.4141.3928-.3883 1.026-.3845 1.4142.0083C22.7403 2.7963 24 5.8 24 9c0 6.2907-4.8405 11.4508-11 11.959zM12 18c-4.9706 0-9-4.0294-9-9s4.0294-9 9-9 9 4.0294 9 9-4.0294 9-9 9z"/></svg>
